X:1
T:Johnny Scott
M:2/4
L:1/4
K:C
 c A| A G/2E/2| G G| G c/2d/2| e B|A/2-G/2 E| G2-| G c/2c/2| A A| A G|\
 c- c| d c/2d/2| ed/2-c/2| A G| c2|
